Images/Code-hover.svg

<svg width="523" height="393" xmlns="http://www.w3.org/2000/svg"><g fill-rule="nonzero" fill="#FF2E30"><path d="M325.762 5.513L308.056.659c-2.279-.76-4.524-.521-6.707.715-2.19 1.237-3.669 3.094-4.429 5.568L190.426 375.53c-.76 2.475-.522 4.809.715 6.995 1.237 2.19 3.09 3.665 5.568 4.425l17.701 4.856c2.284.766 4.521.526 6.71-.712 2.19-1.243 3.666-3.094 4.425-5.564L332.042 16.936c.759-2.474.523-4.808-.716-6.999-1.238-2.19-3.089-3.665-5.564-4.424zM166.167 77.465c0-2.474-.953-4.665-2.856-6.567l-14.277-14.276c-1.903-1.903-4.093-2.857-6.567-2.857s-4.665.955-6.567 2.857L2.856 189.666C.95 191.569 0 193.759 0 196.233s.953 4.664 2.856 6.566l133.043 133.044c1.902 1.906 4.089 2.854 6.567 2.854 2.478 0 4.665-.951 6.567-2.854l14.277-14.268c1.903-1.902 2.856-4.093 2.856-6.57 0-2.471-.953-4.661-2.856-6.563L51.107 196.233 163.311 84.032c1.906-1.902 2.856-4.093 2.856-6.567zM519.614 189.663L386.567 56.619c-1.902-1.902-4.093-2.857-6.563-2.857-2.478 0-4.661.955-6.57 2.857l-14.271 14.275c-1.902 1.903-2.851 4.09-2.851 6.567 0 2.477.948 4.665 2.851 6.567l112.206 112.204-112.206 112.21c-1.902 1.902-2.851 4.093-2.851 6.563 0 2.478.948 4.668 2.851 6.57l14.271 14.268c1.909 1.906 4.093 2.854 6.57 2.854 2.471 0 4.661-.951 6.563-2.854L519.614 202.8c1.903-1.902 2.854-4.096 2.854-6.57 0-2.475-.951-4.665-2.854-6.567z"/></g></svg>

<?xml version="1.0" encoding="UTF-8"?>
<svg width="523px" height="393px" viewBox="0 0 523 393" version="1.1" xmlns="http://www.w3.org/2000/svg" xmlns:xlink="http://www.w3.org/1999/xlink">
    <!-- Generator: Sketch 43.1 (39012) - http://www.bohemiancoding.com/sketch -->
    <title>code</title>
    <desc>Created with Sketch.</desc>
    <defs></defs>
    <g id="Page-1" stroke="none" stroke-width="1" fill="none" fill-rule="evenodd">
        <g id="code" fill-rule="nonzero" fill="#FF2E30">
            <path d="M325.762,5.513 L308.056,0.659 C305.777,-0.101 303.532,0.138 301.349,1.374 C299.159,2.611 297.68,4.468 296.92,6.942 L190.426,375.53 C189.666,378.005 189.904,380.339 191.141,382.525 C192.378,384.715 194.231,386.19 196.709,386.95 L214.41,391.806 C216.694,392.572 218.931,392.332 221.12,391.094 C223.31,389.851 224.786,388 225.545,385.53 L332.042,16.936 C332.801,14.462 332.565,12.128 331.326,9.937 C330.088,7.747 328.237,6.272 325.762,5.513 Z" id="Shape"></path>
            <path d="M166.167,77.465 C166.167,74.991 165.214,72.8 163.311,70.898 L149.034,56.622 C147.131,54.719 144.941,53.765 142.467,53.765 C139.993,53.765 137.802,54.72 135.9,56.622 L2.856,189.666 C0.95,191.569 0,193.759 0,196.233 C0,198.707 0.953,200.897 2.856,202.799 L135.899,335.843 C137.801,337.749 139.988,338.697 142.466,338.697 C144.944,338.697 147.131,337.746 149.033,335.843 L163.31,321.575 C165.213,319.673 166.166,317.482 166.166,315.005 C166.166,312.534 165.213,310.344 163.31,308.442 L51.107,196.233 L163.311,84.032 C165.217,82.13 166.167,79.939 166.167,77.465 Z" id="Shape"></path>
            <path d="M519.614,189.663 L386.567,56.619 C384.665,54.717 382.474,53.762 380.004,53.762 C377.526,53.762 375.343,54.717 373.434,56.619 L359.163,70.894 C357.261,72.797 356.312,74.984 356.312,77.461 C356.312,79.938 357.26,82.126 359.163,84.028 L471.369,196.232 L359.163,308.442 C357.261,310.344 356.312,312.535 356.312,315.005 C356.312,317.483 357.26,319.673 359.163,321.575 L373.434,335.843 C375.343,337.749 377.527,338.697 380.004,338.697 C382.475,338.697 384.665,337.746 386.567,335.843 L519.614,202.8 C521.517,200.898 522.468,198.704 522.468,196.23 C522.468,193.755 521.517,191.565 519.614,189.663 Z" id="Shape"></path>
        </g>
    </g>
</svg>
